www/assets/icons/thermostat.svg

<svg xmlns="http://www.w3.org/2000/svg" width="24" height="24" viewBox="0 0 24 24" fill='currentColor'><path d="M15 13V5c0-1.66-1.34-3-3-3S9 3.34 9 5v8c-1.21.91-2 2.37-2 4 0 2.76 2.24 5 5 5s5-2.24 5-5c0-1.63-.79-3.09-2-4m-4-2V5c0-.55.45-1 1-1s1 .45 1 1v1h-1v1h1v2h-1v1h1v1z"/></svg>

<svg width="24" height="24" viewBox="0 0 24 24" xmlns="http://www.w3.org/2000/svg" fill='currentColor'><path d="M15 13V5C15 3.34 13.66 2 12 2C10.34 2 9 3.34 9 5V13C7.79 13.91 7 15.37 7 17C7 19.76 9.24 22 12 22C14.76 22 17 19.76 17 17C17 15.37 16.21 13.91 15 13ZM11 11V5C11 4.45 11.45 4 12 4C12.55 4 13 4.45 13 5V6H12V7H13V9H12V10H13V11H11Z"/></svg>
